X:1
T:In meiner [n]ot
T:In meiner [n]ot
T:Adam Gumpelzhaimer
T:Source : Neüe Teütsche Geistliche Lieder mit 3stimmen---Augsburg---V.Schönigk---1591. Editor : André Vierendeels (02/07/16).
T:Notes : Original clefs : G2, C1, C4 Text middle German
T:©
T:©
T:©
T:©
T:©
T:©
C:Adam Gumpelzhaimer
Z:©
%%score [ 1 2 3 ]
L:1/8
Q:1/4=105
M:4/4
K:F
V:1 treble nm="Soprano 1" snm="S 1"
V:2 treble nm="Soprano 2" snm="S 2"
V:3 treble-8 nm="Tenor" snm="T"
V:1
 c4 d2 e2 | f4 e4 | d2 c4 =B2 | c2 f2 defd | e2 f4 e2 | f2 c2 d2 c2 | B2 A2 G4 | F2 c2 d2 c2 | %8
w: In mei- ner|not hoff|ich auff _|Gott, hoff ich _ _ _|_ _ auff|Gott, und tröst mich|sei- ner gna-|den, und tröst mich|
w: Der Grech- te|Gott, in|kei- ner _|not, in kei- * * *|* * ner|not, nicht las- sen|will die from-|men, nicht las- sen|
 =B2 c4 B2 | c8 | c4 d2 e2 | f4 e4 | d2 c4 =B2 | c2 f2 defd | e2 f4 e2 | f2 c2 d2 c2 | B2 A2 G4 | %17
w: sei- ner gna-|den,|er hat auff|erd mich|offt ge- *|wekt, mich offt _ _ _|_ _ ge-|wekt, kein un- fal|las- sen scha-|
w: will die from-|men,|er last sie|nicht, send|hin _ das|liecht, send ihn _ _ _|_ _ das|liecht, da- mit sie|Trost be- kom-|
 F2 c2 d2 c2 | =B2 c4 B2 | c8 | z8 | z2 c2 B2 AG | A2 A2 c2 c2 | B4 G4 | A4 z2 c2 | G3 A BABc | %26
w: den, kein un- fal|las- sen scha-|den,||sein gna- * *|* den- liecht hat|mein ge-|sicht er-|leuch- * * * * *|
w: men, da- mit sie|Trost be- kom-|men,||fin- * * *|ster- nusz treibt das|sie nicht|bleibt, das|fin- * * * * *|
 d3 c/B/ A2 B2 | c2 f2 e2 dc | d8 | e8 | z8 | z2 c2 B2 AG | A2 A2 c2 c2 | B4 G4 | A4 z2 c2 | %35
w: * * * * tet|der ge- treu- * *||e,||die fin- * *|* ster- nacht mir|liech- te|macht, inn|
w: * * * * ster|macht er liech- * *||te,||wen- det _ _|_ mit freüd, all-|weg hir|leid, last|
 G3 A BABc | d3 c/B/ A2 B2 | c2 f2 e2 dc | d8 | !fermata!e8 |] %40
w: Trüb- * * * * *|* * * * sal|ich mich freü- * *||e.|
w: sie hin fin- * * *|* * * * ster|nich- * * * *||te.|
V:2
 z4 G4 | A2 B2 c2 A2 | B2 c2 d4 | c4 B4 | A3 G/F/ G4 | A2 A2 B2 A2 | G2 F4 E2 | F2 E2 F2 F2 | %8
w: In|mei- ner not hoff|ich auff Gott,|hoff ich|auff _ _ _|Gott, und tröst mich|sei- ner gna-|den, und tröst mich|
w: Der|Grech- te Gott, in|kei- ner not,|in kei-|ner- * * *|not, nicht las- sen|will die from-|men, nicht las- sen|
 G2 E2 D4 | E4 z4 | z4 G4 | A2 B2 c2 A2 | B2 c2 d4 | c4 B4 | A3 G/F/ G4 | A2 A2 B2 A2 | G2 F4 E2 | %17
w: sei- ner gna-|den,|er|hat auff erd mich|offt ge- wekt,|mich offt|ge- * * *|wekt, kein un- fal|las- sen scha-|
w: will die from-|men,|er|last sie nicht, send|hin das liecht,|send ihn|das _ _ _|liecht, da- mit sie|Trost be- kom-|
 F2 E2 F2 F2 | G2 E2 D4 | E2 G2 F2 ED | E4 D4 | C2 C2 D2 E2 | F4 A4 | G2 F4 E2 | F2 F2 C3 D | %25
w: den, kein un- fal|las- sen scha-|den, sein gna- * *|* den-|liecht, sein gna- den-|liecht hat|mein _ ge-|sicht er- leuch- *|
w: men, da- mit sie|Trost be- kom-|men, fin- ster- * *|* nusz|treibt, fin- ster- nusz|treibt das|sie _ nicht|bleibt, das sie nicht|
 EDEF G2 E2 | DCDE F3 G | A2 A2 G2 A2 | =B2 c4 B2 | c2 G2 F2 ED | E4 D4 | C2 C2 D2 E2 | F4 A4 | %33
w: * * * * * tet|der _ _ _ _ _|_ ge- treu- *||e, die fin- * *|* ster-|nacht, die fin- ster-|nacht mir|
w: bleibt _ , _ _ das|fin- * * * * *|* ster macht er|lie- * *|te, macht er _ _|_ liech-|te, wen- det mit|freüd all-|
 G2 F4 E2 | F2 F2 C3 D | EDEF G2 E2 | DCDE F3 G | A2 A2 G2 A2 | =B2 c4 B2 | !fermata!c8 |] %40
w: liech- * te|macht, inn Trüb- *|* * * * * sal|ich _ _ _ _ _|_ mich freü- *||e.|
w: weg _ hir|leid, last sie _|_ _ _ _ _ hin|fin- * * * * *|* ster nich- *||te.|
V:3
 z8 | z4 c4 | B2 A2 G4 | A4 B4 | c8 | F4 z4 | z4 z2 c2 | d2 c2 B2 A2 | G8 | C4 z4 | z8 | z4 c4 | %12
w: |In|mei- ner not|hoff ich|auff|Gott,|und|tröst mich sei- ner|gna-|den,||er|
w: |Der|Grech- te Gott,|in kei-|ner|not,|nicht|las- sen will die|from-|men,||er|
 B2 A2 G4 | A4 B4 | c8 | F4 z4 | z4 z2 c2 | d2 c2 B2 A2 | G8 | C4 z4 | z2 c2 B2 AG | A4 G4 | %22
w: hat auff erd|mich offt|ge-|wekt,|kein|un- fal las- sen|scha-|den,|sein gna- * *|* den-|
w: last sie nicht,|send ihn|das|liecht,|da-|mit sie Trost be-|kom-|men,|fin- ster- * *|* nusz|
 F4 f4 | B4 c4 | F8 | z2 c2 G3 A | BABc d2 B2 | A3 B c2 BA | G2 F2 G4 | c4 z4 | z2 c2 B2 AG | %31
w: liecht hat|mein ge-|sicht|er- leuch- *|* * * * * tet|der _ _ _ _|_ ge- treu-|e,|die fin- * *|
w: treibt, das|sie nicht|bleibt,|das fin- *|* * * * * ster|macht _ _ er _|liech- * *|te,|wen- det _ _|
 A4 G4 | F4 f4 | B4 c4 | F8 | z2 c2 G3 A | BABc d2 B2 | A3 B c2 BA | G2 F2 G4 | !fermata!c8 |] %40
w: * ster-|nacht mir|liech- te|macht,|in Trüb- *|* * * * * sal|ich _ _ _ _|_ mich freü-|e.|
w: _ mit|freüd all-|weg hir|leid,|last sie _|_ _ _ _ _ hin|fin- * * * *|* ster nich-|te.|

